packages/icons/src/emoji/svg/heart.svg

<svg width="120" height="120" viewBox="0 0 120 120" fill="none" xmlns="http://www.w3.org/2000/svg">
<path d="M103.481 72.8063C106.012 69.0375 107.868 64.9969 108.618 60.5344C109.378 56.0438 109.34 49.6125 107.503 45.3375C103.19 35.25 95.8122 29.4656 85.6872 29.5219C85.3122 29.5219 84.9372 29.5219 84.5622 29.5406C80.5965 29.6063 76.7434 30.4875 73.1059 32.0156C69.2059 33.6563 66.5247 36.1219 63.0653 38.3156C61.7528 39.15 59.8872 39.1406 58.584 38.3156C55.1153 36.1125 52.4434 33.6563 48.5528 32.0156C44.9153 30.4969 41.0622 29.6063 37.0965 29.5406C36.7215 29.5313 36.3465 29.5313 35.9622 29.5219C25.8372 29.4656 18.4684 35.2406 14.1465 45.3375C12.309 49.6125 12.2715 56.0438 13.0309 60.5344C13.7809 65.0063 15.6465 69.0469 18.1778 72.8063C26.6247 85.3875 41.6903 91.2281 52.5559 101.363C53.7184 102.441 54.8622 103.613 56.0434 104.7C57.2997 105.853 58.8184 108.516 60.834 108.638C62.8497 108.516 64.3684 105.853 65.6247 104.7C66.8059 103.613 67.9497 102.441 69.1122 101.363C79.959 91.2281 95.034 85.3875 103.481 72.8063Z" fill="#D7598B"/>
<path d="M111.403 82.4718C112.688 79.9686 114.169 76.3593 113.541 73.4811C113.419 72.9561 113.194 72.0843 112.519 72.0749C112.078 72.0749 111.769 72.3468 111.534 72.6936C111.328 73.0124 111.178 73.3874 111.028 73.678C109.856 76.1436 108.478 78.5343 106.791 80.6905C105.216 82.7061 103.425 84.553 101.531 86.2686C101.1 86.6624 100.659 87.0468 100.209 87.4218C98.7094 88.6968 97.1719 89.9061 95.5876 91.0593C93.8157 92.353 91.9969 93.5811 90.1501 94.7718C89.6344 95.1093 88.9594 95.6343 89.2032 96.3843C89.4282 97.0874 90.8157 96.8905 91.3782 96.778C99.3938 95.203 107.616 89.8686 111.403 82.4718ZM118.491 82.3686C117.844 81.8249 117.272 82.2093 116.794 82.8936C115.763 84.3468 115.153 86.0905 114.15 87.5811C111.544 91.4343 107.869 95.3718 103.688 97.5093C103.209 97.753 102.825 98.053 102.403 98.3624C100.856 99.4874 103.481 99.7218 104.175 99.6186C108.966 98.9155 114.263 96.2436 116.775 91.9686C117.966 89.953 118.763 87.7405 118.894 85.3874C118.941 84.703 119.1 82.8936 118.491 82.3686ZM26.6063 25.2468C26.9251 25.1343 27.3094 25.0218 27.6469 24.8436C28.0219 24.6468 28.3313 24.3655 28.3594 23.9249C28.4157 23.2499 27.5719 22.9405 27.0563 22.7718C22.4532 21.2624 16.2094 24.1686 12.6657 26.9905C8.03443 30.6843 5.2688 36.6936 5.2688 42.5999C5.2688 43.603 5.1938 44.653 5.28755 45.6561C5.33443 46.1061 5.57818 47.1843 6.07505 47.3718C7.32193 47.8311 8.0438 43.978 8.2313 43.2843C8.77505 41.2874 9.63755 39.2249 10.6876 37.4436C14.1563 31.6124 20.3626 27.5343 26.6063 25.2468ZM14.1844 20.2874C14.5969 20.1186 15.8719 19.8374 16.6501 19.3686C17.1938 19.0405 17.4938 18.6186 17.0907 18.0749C16.4157 17.1468 14.3719 17.3436 13.3782 17.353C12.0751 17.3718 10.7626 17.503 9.49693 17.8499C4.11568 19.3311 0.796928 25.0593 1.05943 30.4405C1.08755 31.078 1.1813 32.0436 1.52818 32.5968C1.94068 33.2718 2.50318 32.8593 2.9063 32.353C3.57193 31.5093 4.02193 30.5343 4.4813 29.5686C4.91255 28.678 5.3813 27.7874 5.91568 26.953C7.97818 23.7561 10.6876 21.703 14.1844 20.2874Z" fill="#ED6C30"/>
</svg>

<svg xmlns="http://www.w3.org/2000/svg" fill="none" aria-hidden="true" data-slot="icon" viewBox="0 0 120 120"><path fill="#D7598B" d="M103.481 72.806c2.531-3.769 4.387-7.81 5.137-12.272.76-4.49.722-10.922-1.115-15.196-4.313-10.088-11.69-15.872-21.816-15.816-.375 0-.75 0-1.125.019-3.965.065-7.819.947-11.456 2.475-3.9 1.64-6.581 4.106-10.04 6.3-1.313.834-3.179.825-4.482 0-3.469-2.204-6.14-4.66-10.031-6.3-3.638-1.52-7.49-2.41-11.456-2.475-.376-.01-.75-.01-1.135-.02-10.125-.055-17.494 5.72-21.816 15.816-1.837 4.275-1.875 10.707-1.115 15.197.75 4.472 2.615 8.513 5.147 12.272 8.447 12.582 23.512 18.422 34.378 28.557 1.162 1.078 2.306 2.25 3.487 3.337 1.257 1.153 2.775 3.816 4.791 3.938 2.016-.122 3.534-2.785 4.79-3.938 1.182-1.087 2.326-2.259 3.488-3.337 10.847-10.135 25.922-15.975 34.369-28.557"/><path fill="#ED6C30" d="M111.403 82.472c1.285-2.503 2.766-6.113 2.138-8.99-.122-.526-.347-1.398-1.022-1.407-.441 0-.75.272-.985.619-.206.318-.356.693-.506.984-1.172 2.466-2.55 4.856-4.237 7.013-1.575 2.015-3.366 3.862-5.26 5.578q-.647.59-1.322 1.153a78 78 0 0 1-4.621 3.637 114 114 0 0 1-5.438 3.713c-.516.337-1.19.862-.947 1.612.225.703 1.613.507 2.175.394 8.016-1.575 16.238-6.91 20.025-14.306m7.088-.103c-.647-.544-1.219-.16-1.697.525-1.031 1.453-1.641 3.197-2.644 4.687-2.606 3.853-6.281 7.79-10.462 9.928-.479.244-.863.544-1.285.853-1.547 1.125 1.078 1.36 1.772 1.257 4.791-.704 10.088-3.375 12.6-7.65 1.191-2.016 1.988-4.228 2.119-6.582.047-.684.206-2.493-.403-3.018M26.606 25.247c.32-.113.703-.225 1.04-.403.376-.197.685-.479.713-.92.057-.674-.787-.983-1.303-1.152-4.603-1.51-10.847 1.397-14.39 4.219-4.632 3.693-7.397 9.703-7.397 15.609 0 1.003-.075 2.053.019 3.056.046.45.29 1.528.787 1.716 1.247.46 1.969-3.394 2.156-4.088a24.4 24.4 0 0 1 2.457-5.84c3.468-5.832 9.675-9.91 15.918-12.197m-12.422-4.96c.413-.168 1.688-.45 2.466-.918.544-.328.844-.75.44-1.294-.674-.928-2.718-.731-3.712-.722-1.303.019-2.615.15-3.881.497-5.381 1.481-8.7 7.21-8.438 12.59.029.638.122 1.604.47 2.157.412.675.974.262 1.377-.244.666-.844 1.116-1.819 1.575-2.784.432-.891.9-1.782 1.435-2.616 2.062-3.197 4.772-5.25 8.268-6.666"/></svg>
